icons/caret-double-downleft.svg

<svg width="24" height="24" viewBox="0 0 24 24" fill="none" xmlns="http://www.w3.org/2000/svg">
<path fill-rule="evenodd" clip-rule="evenodd" d="M11.7919 5.45482C12.0613 5.35381 12.4057 5.34379 12.7157 5.49875L12.8277 5.55476L18.314 11.1427C18.5142 11.3451 18.563 11.5894 18.5688 11.7465C18.575 11.9129 18.539 12.0699 18.4821 12.2025C18.3812 12.438 18.0983 12.8196 17.5802 12.8196H12.0802C11.7863 12.8196 11.5552 12.6802 11.4124 12.5374C11.2697 12.3946 11.1302 12.1635 11.1302 11.8696V6.36957C11.1302 5.83426 11.5338 5.5516 11.7919 5.45482ZM12.6302 7.49472V11.3196H16.3856L12.6302 7.49472Z" fill="black"/>
<path fill-rule="evenodd" clip-rule="evenodd" d="M5.96989 11.2863C6.28824 11.1271 6.63899 11.1604 6.91571 11.2988L7.02457 11.3532L12.6106 16.9393C12.8137 17.1423 12.863 17.3886 12.8688 17.5465C12.875 17.7129 12.839 17.8699 12.7822 18.0025C12.6812 18.238 12.3983 18.6196 11.8803 18.6196H6.3803C6.08637 18.6196 5.85523 18.4802 5.71247 18.3374C5.56971 18.1947 5.4303 17.9635 5.4303 17.6696V12.1696C5.4303 11.7935 5.6337 11.4544 5.96989 11.2863ZM6.9303 13.3803V17.1196H10.6696L6.9303 13.3803Z" fill="black"/>
</svg>

<svg xmlns="http://www.w3.org/2000/svg" fill="none" viewBox="0 0 24 24">
  <path fill="#000" fill-rule="evenodd" d="M11.792 5.455a1.17 1.17 0 0 1 .924.044l.112.056 5.486 5.588c.2.202.249.446.255.603.006.167-.03.324-.087.457-.1.235-.384.617-.902.617h-5.5a.95.95 0 0 1-.668-.283.95.95 0 0 1-.282-.667v-5.5c0-.536.404-.818.662-.915Zm.838 2.04v3.825h3.756L12.63 7.495Zm-6.66 3.791c.318-.159.669-.126.946.013l.109.054 5.586 5.586c.203.203.252.45.258.608.006.166-.03.323-.087.456-.1.235-.384.617-.902.617h-5.5a.95.95 0 0 1-.668-.283.95.95 0 0 1-.282-.667v-5.5c0-.377.204-.716.54-.884Zm.96 2.094v3.74h3.74l-3.74-3.74Z" clip-rule="evenodd"/>
</svg>
